X:147869
T:147869
M:6/8
K:Cmaj
cGcBAB|AGEGEC|cCcBAB|AGED3|cecBdB|AGEGAc|C2EGEC|1DEDC2A/2B/2:||2DEDC2|:CDEGAB|AGEGED|CDEGAB|AGED2G,|CDEGAB|AGEGAc|C2EGEC|1DEDC2B,:||2DEDC3|

